X:597
T: Lieschle am Kirschbaum (295), S.611
N: T0485
O: Luxemburg
S: Singendes Volk, Esch-Alzette 1937 posth.]
N: Hamm, fff Elisabeth Thoma, *1857, 23.2.1933
R: ???]
M: 4/4
L: 1/16
K: C
 | G4G4F4F4 | E4G4G4z4 |
G4B4d8 | G4c4e8 | G4G2G2F3FF2F2 | E4G4G4z4 |
G4B4d4e4 | c8z8

@@@ Tune index: 8651
